assets/icons/insert/link-filled.svg

<?xml version="1.0" encoding="UTF-8" standalone="no"?>
<svg
   viewBox="0 0 24 24"
   height="24"
   width="24"
   version="1.1"
   id="svg8"
   sodipodi:docname="link-filled.svg"
   inkscape:version="1.2 (1:1.2.1+202207142221+cd75a1ee6d)"
   xmlns:inkscape="http://www.inkscape.org/namespaces/inkscape"
   xmlns:sodipodi="http://sodipodi.sourceforge.net/DTD/sodipodi-0.dtd"
   xmlns="http://www.w3.org/2000/svg"
   xmlns:svg="http://www.w3.org/2000/svg">
  <defs
     id="defs12" />
  <sodipodi:namedview
     id="namedview10"
     pagecolor="#ffffff"
     bordercolor="#666666"
     borderopacity="1.0"
     inkscape:pageshadow="2"
     inkscape:pageopacity="0.0"
     inkscape:pagecheckerboard="0"
     showgrid="true"
     inkscape:snap-page="true"
     inkscape:zoom="39.59798"
     inkscape:cx="8.2579971"
     inkscape:cy="10.808632"
     inkscape:window-width="1920"
     inkscape:window-height="1043"
     inkscape:window-x="0"
     inkscape:window-y="0"
     inkscape:window-maximized="1"
     inkscape:current-layer="svg8"
     inkscape:showpageshadow="2"
     inkscape:deskcolor="#d1d1d1">
    <inkscape:grid
       type="xygrid"
       id="grid823" />
    <inkscape:grid
       type="xygrid"
       id="grid844"
       dotted="true"
       spacingx="0.5"
       spacingy="0.5"
       empspacing="10" />
  </sodipodi:namedview>
  <g
     color="#000000"
     fill="#808080"
     id="g6"
     transform="matrix(1.25,0,0,1.25,2,1)"
     style="stroke-width:0.8">
    <path
       d="m 10.182,12 -4.364,10e-4 c 0.304,0.664 0.643,1.34 1.018,2.027 0.376,0.682 0.764,1.34 1.164,1.972 0.392,-0.633 0.776,-1.29 1.152,-1.972 0.375,-0.688 0.718,-1.364 1.03,-2.028 z"
       style="stroke-width:0.64;marker:none"
       overflow="visible"
       id="path2" />
  </g>
  <path
     id="path955"
     style="color:#000000;fill:#808080;fill-opacity:1"
     d="M 5.4609375 6 C 4.5054146 6.0056 3.7862677 6.0464303 3.1894531 6.2851562 C 2.7915768 6.4443069 2.4494871 6.7338384 2.2558594 7.1210938 C 2.0622317 7.5083492 2 7.9583344 2 8.5 L 2 10.5 C 2 11.041665 2.0622322 11.491651 2.2558594 11.878906 C 2.4494871 12.266162 2.7915768 12.555693 3.1894531 12.714844 C 3.9852059 13.033144 5.000003 13 6.5 13 C 7.999997 13 9.0147941 13.033139 9.8105469 12.714844 C 10.208424 12.555693 10.550513 12.266162 10.744141 11.878906 C 10.874681 11.617825 10.944274 11.326978 10.976562 11 L 6 11 L 6 8 L 10.976562 8 C 10.944273 7.6730223 10.874681 7.3821757 10.744141 7.1210938 C 10.550513 6.7338384 10.208424 6.4443069 9.8105469 6.2851562 C 9.0147941 5.9668552 7.999997 6 6.5 6 C 6.1250008 6 5.7794452 5.99813 5.4609375 6 z " />
  <rect
     style="fill:#808080;fill-rule:evenodd;stroke-width:2;fill-opacity:1"
     id="rect1666"
     width="10"
     height="1"
     x="7"
     y="9" />
  <path
     id="path444"
     style="color:#000000;fill:#808080;fill-opacity:1"
     d="m 18.539062,6 c 0.955523,0.0056 1.67467,0.04643 2.271485,0.2851562 0.397876,0.1591507 0.739966,0.4486822 0.933594,0.8359376 0.193627,0.3872554 0.255859,0.8372406 0.255859,1.3789062 v 2 c 0,0.541665 -0.06223,0.991651 -0.255859,1.378906 -0.193628,0.387256 -0.535718,0.676787 -0.933594,0.835938 -0.795753,0.3183 -1.81055,0.285156 -3.310547,0.285156 -1.499997,0 -2.514794,0.03314 -3.310547,-0.285156 -0.397877,-0.159151 -0.739966,-0.448682 -0.933594,-0.835938 -0.13054,-0.261081 -0.200133,-0.551928 -0.232421,-0.878906 h 4.976562 v -3 h -4.976562 c 0.03229,-0.3269777 0.101881,-0.6178243 0.232421,-0.8789062 0.193628,-0.3872554 0.535717,-0.6767869 0.933594,-0.8359376 0.795753,-0.318301 1.81055,-0.2851562 3.310547,-0.2851562 0.374999,0 0.720555,-0.00187 1.039062,0 z" />
</svg>

<svg height="24" width="24" xmlns="http://www.w3.org/2000/svg"><path style="color:#000;fill:gray;fill-opacity:1" d="M5.46 6c-.955.006-1.674.046-2.27.285-.398.16-.74.449-.934.836C2.062 7.508 2 7.958 2 8.5v2c0 .542.062.992.256 1.379.193.387.536.677.933.836C3.985 13.033 5 13 6.5 13s2.515.033 3.31-.285c.398-.16.74-.449.934-.836.13-.261.2-.552.233-.879H6V8h4.977a2.482 2.482 0 0 0-.233-.879 1.767 1.767 0 0 0-.933-.836C9.015 5.967 8 6 6.5 6c-.375 0-.72-.002-1.04 0z"/><path style="fill:gray;stroke-width:2;fill-opacity:1" d="M7 9h10v1H7z"/><path style="color:#000;fill:gray;fill-opacity:1" d="M18.54 6c.955.006 1.674.046 2.27.285.398.16.74.449.934.836.194.387.256.837.256 1.379v2c0 .542-.062.992-.256 1.379a1.767 1.767 0 0 1-.933.836C20.015 13.033 19 13 17.5 13s-2.515.033-3.31-.285a1.767 1.767 0 0 1-.934-.836c-.13-.261-.2-.552-.233-.879H18V8h-4.977c.033-.327.102-.618.233-.879.193-.387.536-.677.933-.836C14.985 5.967 16 6 17.5 6c.375 0 .72-.002 1.04 0z"/><path style="color:#000;display:inline;overflow:visible;visibility:visible;fill:gray;fill-opacity:1;fill-rule:nonzero;stroke:none;stroke-width:.749853;marker:none;enable-background:accumulate" d="m14.727 16.001-5.455.001c.38.83.804 1.676 1.273 2.536A48.4 48.4 0 0 0 12 21c.49-.79.97-1.613 1.44-2.462.469-.862.897-1.707 1.287-2.537z"/></svg>
